X: 1
T: Larry Redican's
M: 4/4
L: 1/8
R: hornpipe
K: Dmaj
DEFD EFDE|FAdA B/c/d AF|DFAF DGBG|DFAF EAcE|
D/D/D DF AFDE|FAdA B/c/d AF|GBGB A/B/A FA|1 EAce d2 AF:|2 EAce d/d/d fg||
afdB ge c/B/A|fd B/c/d ecAF|GAFA dAFA|(3GAG FG E2 fg|
afdB ge c/B/A|fd B/c/d ecAF|GBGB A/B/A FA|EAce d2 fg|
afdB ge c/B/A|fd B/c/d ecAF|(3GAG (3FGF EAFA|(3GAG FG E2 fg|
afdB ge c/B/A|fd B/c/d ecAF|GBGB A/B/A FA|EAce d/d/d AF||
